X: 1
T:The Eavesdropper  "CYMRU"
M:6/8
L:1/8
Q:80
C:
S:Jig
K:HP
|: a|
{AGAG}A2{d}A{g}cB{G}A|
{g}ce{A}e{g}ec{d}A|
{g}df{e}f{g}ec{d}A|  !
{g}cB{G}B{g}BcB| |
{AGAG}A2{d}A{g}cB{G}A|
{g}ce{A}e{g}ec{d}A|  !
{g}df{e}f{g}ec{d}B|
{g}c{d}A{e}A{GAG}A2:| |:
e|  !
agaec{G}A|
{g}df{e}f{g}ed{d}A|
{g}df{e}f{g}ec{d}A|  !
{g}cB{G}B{g}B{d}ce| |
agaec{G}A|
{g}df{e}f{g}ed{d}A|  !
{g}df{e}f{g}ec{d}B|
{g}c{d}A{e}A{GAG}A2:|
